X: 11102
Q: "Slowish"
M: 3/8
L: 1/16
K: G
(G2B2)d2 | (B2G2).B2 |\
(AB)(cA)(BG) | A2F2D2 |\
|: D2 |\
(AB)(cd)(e^d) | (e2c2A2) |\
(GA).B.c.d.e | d2B2G2 |\
(d2g2).d2 | B2G2B2 |\
(AB)(cA)(BG) |(A2F2)D2 |\


